!!!SOCIAL_FUNCTION: songs connected with ceremonies
!!!SOCIAL_FUNCTION2: Buffalo dance
!!!PDT:	1929
!!!LING_GROUP: Caddoan
!!!LANG: Non-Tone
!!!REG: Oklahoma
!!!COM: Anon.
!!!OTL: The Woman Imitates the Buffalo
!!!ODT: <1920//
!!!MPN: Tutukrawitsu [He overtook the enemy, Wicita Blain]
!!!MLC: Pawnee, Oklahoma, United States of America
!! Song was recorded either 1919 or 1920.
!!!AGN: monody
!!!AMT: irregular
!!!RWG: Transcribed pitches, durations, and meters are only approximate.
!! Drum Tempo:  MM144; changing to MM80
!! Drum-rhythm: (8 8 8 8 8 8)
**kern	**silbe	**words	**words
*ICvox	*LPawnee	*LPawnee	*LEnglish
*Imale	*	*	*
*clefF4	*	*	*
*k[f#c#g#d#]	*	*	*
*M2/4	*M2/4	*M2/4	*M2/4
*MM80	*MM80	*MM80	*MM80
*[A,B,C,B,D]	*[A,B,C,B,D]	*[A,B,C,B,D]	*[A,B,C,B,D]
*>A	*>A	*>A	*>A
=1-	=1-	=1-	=1-
12e	Ha	Ha	Listen
12e	ti	ti	he
12e	wa-	waka	said
8.e	-ka	.	.
16e	u	u[?]	.
=2	=2	=2	=2
(12e	e	e	yonder
12d#)	|	.	.
12e	ru	ru	there
4c#	re-	rea	her coming
=3	=3	=3	=3
4c#	-a	.	.
(8c#	a	.	.
8A)	|	.	.
=4	=4	=4	=4
8c#	ra	ra	do have
8A	i	i	him
8G#	ta-	tawea	tell about it
8G#	-we-	.	.
*>B	*>B	*>B	*>B
=!|:5	=!|:5	=!|:5	=!|:5
8e	-a	.	.
8e	a	.	.
4e	u	.	.
=6	=6	=6	=6
(12e	e	.	.
12d#)	|	.	.
12e	ru	ru	there
(8.c#	re-	rea	her coming
16B)	|	.	.
=7	=7	=7	=7
(8.c#	-e-	.	.
16A)	|	.	.
(8.c#	-a	.	.
16G#)	|	.	.
=8	=8	=8	=8
16c#	tsa-	tsapat	woman
(8c#	-pat	.	.
16A)	|	.	.
16c#	ta-	tarha	buffalo
8c#	-ra-	.	.
16E	-ha	.	.
*M3/4	*M3/4	*M3/4	*M3/4
=9	=9	=9	=9
16G#	tu	tu	his
8.E	ra	ra	have
(8E	ru-	ruku	imitate
8D#)	|	.	.
4C#	-ku	.	.
*M2/4	*M2/4	*M2/4	*M2/4
=10	=10	=10	=10
12E	e	e	yonder
12E	e	e	yonder
12E	ru	ru	there
8.C#	re-	rea	her coming
16BB	|	.	.
=11	=11	=11	=11
8.C#	-e-	.	.
16BB	|	.	.
4C#	-a	.	.
=12	=12	=12	=12
12C#	e	e	yonder
12C#	e	e	yonder
12C#	ru	ru	there
4GG#	re-	rea	her coming
!! First ending:
*>C	*>C	*>C	*>C
=13	=13	=13	=13
4GG#	-a	.	.
8r	.	.	.
8e	ra	ra	have
=14	=14	=14	=14
8.e	u-	ura	walk
16G#	-ra	.	.
16.G#	we	we	stopping
32G#	ri-	riku	.
16G#	-ku	.	.
16G#	sa	sa	coming
!! Second ending:
*>D	*>D	*>D	*>D
=15	=15	=15	=15
4GG#	-a	.	.
4r	.	.	.
==	==	==	==
*-	*-	*-	*-
!!!HAO: [no description]
!!!HTX: Listen, he said, yonder she is coming,
!!!HTX: This is what I was told about it, yonder she is coming,
!!!HTX: The woman imitates the buffalo, yonder she is coming,
!!!HTX: She walks, then stops and walks again,
!!!HTX: Yonder she is coming.
!!!CNT: Pawnee
!!!TXO: Pawnee
!!!OCY: United States
!!!OCL: Frances Densmore
!!!YOR: Frances Densmore, "Pawnee Music"
!!!YOR: Bulletin 93, page 31, No. 6
!!!PPR: Smithsonian Institution, Bureau of American Ethnology
!!!PPR: Government Printing Office
!!!PDT: 1926
!!!PPP: Washington, DC, United States of America
!!!YEC: Electronic Copyright 2000 David Huron
!!!YER: September 2000
!!!YEN: United States of America
!!!ENC: David Huron
!!!RDT: September 1, 2000
!!!EEV: Release 1.0
!!!AIN: tom, vox
